packages/core/src/svgs/sha.svg

<svg width="24" height="24" viewBox="0 0 24 24" fill="none" xmlns="http://www.w3.org/2000/svg">
<g clip-path="url(#clip0_31_18567)">
<path d="M0 0H24V24H0V0Z" fill="#351C74"/>
<path d="M12.1872 4.74794C12.0162 4.68708 11.8735 4.72265 11.8229 4.74794C10.1339 5.35587 8.44571 5.9663 6.75847 6.57922C6.55275 6.65765 6.42847 6.83037 6.42847 6.94779V11.6664C6.42847 14.6055 7.21061 16.0447 8.10204 17.1092C9.8399 18.9722 11.6618 19.5645 11.8259 19.6721C11.9472 19.7518 12.1229 19.7055 12.1958 19.6721C13.7858 18.9735 15.2108 17.9029 15.8879 17.1092C17.2268 15.5389 17.5713 14.1332 17.5713 11.6659V6.90579C17.5713 6.71465 17.3836 6.60837 17.2898 6.57879L12.1872 4.74751V4.74794Z" fill="url(#paint0_linear_31_18567)"/>
<path d="M12.1732 5.1748C12.015 5.11737 11.883 5.1508 11.8367 5.1748C10.2776 5.74786 8.71931 6.32329 7.16189 6.90108C6.97161 6.9748 6.85718 7.13765 6.85718 7.24823V11.6968C6.85718 14.4679 7.57889 15.8244 8.40218 16.8281C10.0063 18.5844 11.6876 19.1428 11.8393 19.2444C11.9512 19.3194 12.1136 19.2757 12.1809 19.2444C13.6483 18.5857 14.9636 17.5768 15.5889 16.8281C16.8249 15.3482 17.1429 14.0227 17.1429 11.6968V7.2088C17.1429 7.0288 16.9693 6.92851 16.8827 6.90065C15.3785 6.34908 12.3309 5.2318 12.1727 5.17437L12.1732 5.1748Z" fill="url(#paint1_linear_31_18567)"/>
<path d="M12.1585 5.60166C12.0136 5.54766 11.8928 5.57894 11.8504 5.60166C10.421 6.14004 8.99239 6.68062 7.56464 7.22337C7.39064 7.29237 7.28564 7.44537 7.28564 7.54909V11.7281C7.28564 14.3312 7.94736 15.6058 8.70164 16.5482C10.1721 18.1982 11.7136 18.7232 11.8525 18.8184C11.9554 18.8891 12.1041 18.8479 12.1658 18.8184C13.5111 18.1995 14.7166 17.2515 15.2896 16.5482C16.4224 15.1579 16.7142 13.9129 16.7142 11.7281V7.51309C16.7142 7.3438 16.5556 7.24951 16.4759 7.2238L12.1585 5.60166Z" fill="url(#paint2_linear_31_18567)"/>
<path d="M12.6258 11.409C12.8746 11.2705 13.0703 11.0533 13.1823 10.7915C13.2943 10.5297 13.3163 10.2381 13.2447 9.96249C13.1731 9.68688 13.0121 9.44284 12.7868 9.26864C12.5615 9.09445 12.2848 8.99996 12.0001 9C11.7162 8.99978 11.4403 9.0935 11.2153 9.26654C10.9903 9.43958 10.8289 9.68221 10.7562 9.9566C10.6836 10.231 10.7037 10.5217 10.8136 10.7834C10.9235 11.0451 11.1169 11.2631 11.3637 11.4034L10.7144 14.1429H13.2858L12.6258 11.409Z" fill="url(#paint3_linear_31_18567)"/>
</g>
<defs>
<linearGradient id="paint0_linear_31_18567" x1="11.9999" y1="4.71451" x2="11.9999" y2="19.7162" gradientUnits="userSpaceOnUse">
<stop stop-color="#132368"/>
<stop offset="1" stop-color="#B02CBC"/>
</linearGradient>
<linearGradient id="paint1_linear_31_18567" x1="12" y1="5.14308" x2="12" y2="19.2859" gradientUnits="userSpaceOnUse">
<stop stop-color="#F8F9FB"/>
<stop offset="1" stop-color="#AF2CBB"/>
</linearGradient>
<linearGradient id="paint2_linear_31_18567" x1="11.9999" y1="5.57166" x2="11.9999" y2="18.8574" gradientUnits="userSpaceOnUse">
<stop stop-color="#1B246C"/>
<stop offset="0.496" stop-color="#A27DC3"/>
<stop offset="1" stop-color="#FAEFFD"/>
</linearGradient>
<linearGradient id="paint3_linear_31_18567" x1="12.0074" y1="9.06171" x2="12.0074" y2="14.2183" gradientUnits="userSpaceOnUse">
<stop stop-color="#31237B"/>
<stop offset="1" stop-color="#72259E"/>
</linearGradient>
<clipPath id="clip0_31_18567">
<rect width="24" height="24" fill="white"/>
</clipPath>
</defs>
</svg>

<svg xmlns="http://www.w3.org/2000/svg" width="24" height="24" fill="none" viewBox="0 0 24 24"><g clip-path="url(#a)"><path fill="#351C74" d="M0 0h24v24H0z"/><path fill="url(#b)" d="M12.187 4.748a.5.5 0 0 0-.364 0 1827 1827 0 0 0-5.065 1.831c-.205.079-.33.251-.33.369v4.718c0 2.94.783 4.379 1.674 5.443 1.738 1.863 3.56 2.455 3.724 2.563.121.08.297.034.37 0 1.59-.698 3.015-1.77 3.692-2.563 1.339-1.57 1.683-2.976 1.683-5.443v-4.76c0-.191-.187-.298-.281-.327z"/><path fill="url(#c)" d="M12.173 5.175a.45.45 0 0 0-.336 0q-2.34.86-4.675 1.726c-.19.074-.305.237-.305.347v4.449c0 2.77.722 4.127 1.545 5.131 1.604 1.756 3.286 2.315 3.437 2.416.112.075.275.032.342 0 1.467-.658 2.783-1.667 3.408-2.416 1.236-1.48 1.554-2.805 1.554-5.131V7.209c0-.18-.174-.28-.26-.308z"/><path fill="url(#d)" d="M12.159 5.602a.4.4 0 0 0-.309 0q-2.144.808-4.285 1.621c-.174.07-.28.222-.28.326v4.18c0 2.602.662 3.877 1.417 4.82 1.47 1.65 3.012 2.174 3.15 2.27.103.07.252.029.314 0 1.345-.62 2.55-1.567 3.124-2.27 1.132-1.391 1.424-2.636 1.424-4.82V7.512c0-.17-.158-.263-.238-.29z"/><path fill="url(#e)" d="M12.626 11.409a1.285 1.285 0 1 0-1.262-.006l-.65 2.74h2.572z"/></g><defs><linearGradient id="b" x1="12" x2="12" y1="4.715" y2="19.716" gradientUnits="userSpaceOnUse"><stop stop-color="#132368"/><stop offset="1" stop-color="#B02CBC"/></linearGradient><linearGradient id="c" x1="12" x2="12" y1="5.143" y2="19.286" gradientUnits="userSpaceOnUse"><stop stop-color="#F8F9FB"/><stop offset="1" stop-color="#AF2CBB"/></linearGradient><linearGradient id="d" x1="12" x2="12" y1="5.572" y2="18.857" gradientUnits="userSpaceOnUse"><stop stop-color="#1B246C"/><stop offset=".496" stop-color="#A27DC3"/><stop offset="1" stop-color="#FAEFFD"/></linearGradient><linearGradient id="e" x1="12.007" x2="12.007" y1="9.062" y2="14.218" gradientUnits="userSpaceOnUse"><stop stop-color="#31237B"/><stop offset="1" stop-color="#72259E"/></linearGradient><clipPath id="a"><path fill="#fff" d="M0 0h24v24H0z"/></clipPath></defs></svg>
